svgs/sharp-solid/chart-waterfall.svg

<svg xmlns="http://www.w3.org/2000/svg" viewBox="0 0 512 512"><!--! Font Awesome Pro 6.6.0 by @fontawesome - https://fontawesome.com License - https://fontawesome.com/license (Commercial License) Copyright 2024 Fonticons, Inc. --><path d="M64 32l0 32 0 352 416 0 32 0 0 64-32 0L32 480 0 480l0-32L0 64 0 32l64 0zM192 224l0 32 0 64 0 32-64 0 0-32 0-64 0-32 64 0zm96-64l0 64 0 32-64 0 0-32 0-64 0-32 64 0 0 32zm96-96l0 32 0 64 0 32-64 0 0-32 0-64 0-32 64 0zm96 32l0 224 0 32-64 0 0-32 0-224 0-32 64 0 0 32z"/></svg>

<svg xmlns="http://www.w3.org/2000/svg" viewBox="0 0 512 512"><!--! Font Awesome Pro 6.5.2 by @fontawesome - https://fontawesome.com License - https://fontawesome.com/license (Commercial License) Copyright 2024 Fonticons, Inc. --><path d="M64 32V64 416H480h32v64H480 32 0V448 64 32H64zM192 224v32 64 32H128V320 256 224h64zm96-64v64 32H224V224 160 128h64v32zm96-96V96v64 32H320V160 96 64h64zm96 32V320v32H416V320 96 64h64V96z"/></svg>
